src/16/actions/insert-text.svg

<svg xmlns="http://www.w3.org/2000/svg" width="16" height="16" viewBox="0 0 16 16">
 <defs>
  <style id="current-color-scheme" type="text/css">
   .ColorScheme-Text { color:#565656; } .ColorScheme-Highlight { color:#5294e2; }
  </style>
 </defs>
 <path style="fill:currentColor" class="ColorScheme-Text" d="M 4.3007812 2 L 1.4433594 10 L 2.8710938 10 L 3.4785156 8.2851562 L 6.2636719 8.2851562 L 6.8710938 10 L 8.4609375 10 L 5.4433594 2 L 4.3007812 2 z M 4.8710938 4.2851562 L 5.8710938 7.1425781 L 3.8710938 7.1425781 L 4.8710938 4.2851562 z M 10 5 L 10 6 L 12.5 6 C 12.71408 6 13 6.30707 13 6.5 L 13 7 L 10.5 7 C 10.04036 7 9.6322 7.191975 9.375 7.484375 C 9.1178 7.776765 8.9968 8.13971 9 8.5 C 9.003 8.86031 9.134465 9.226375 9.390625 9.515625 C 9.650625 9.804625 10.05 10 10.5 10 L 14 10 L 14 9.578125 C 14.008 9.531225 14 9.5 14 9.5 L 14 6.5 C 14 5.68283 13.3401 5 12.5 5 L 10 5 z M 10.5 8 L 10.505859 8 L 13 8 L 13 9 L 10.5 9 C 10.30106 9 10.216545 8.945095 10.140625 8.859375 C 10.064725 8.773675 10.00124 8.63969 10 8.5 C 9.999 8.36031 10.0523 8.223225 10.125 8.140625 C 10.20405 8.0586111 10.295297 8.0013572 10.5 8 z M 5 11.996094 L 8 15.996094 L 11 11.996094 L 5 11.996094 z"/>
</svg>

<svg xmlns="http://www.w3.org/2000/svg" width="16" height="16"><defs><style id="current-color-scheme" type="text/css"></style></defs><path d="M4.3 2l-2.857 8h1.428l.608-1.715h2.785L6.87 10h1.59L5.443 2H4.301zm.571 2.285l1 2.858h-2l1-2.858zM10 5v1h2.5c.214 0 .5.307.5.5V7h-2.5c-.46 0-.868.192-1.125.484A1.509 1.509 0 0 0 9 8.5c.003.36.134.726.39 1.016.26.289.66.484 1.11.484H14v-.422c.008-.047 0-.078 0-.078v-3A1.5 1.5 0 0 0 12.5 5H10zm.5 3H13v1h-2.5c-.199 0-.283-.055-.36-.14A.572.572 0 0 1 10 8.5a.56.56 0 0 1 .125-.36c.08-.081.17-.139.375-.14zM5 11.996l3 4 3-4H5z" fill="currentColor" color="#565656"/></svg>
